X: 2028
T: Tobin's Favourite
B: steve tunes
B: nick
M:6/8
Q: 3/8=100
K:Dmajor
V:1 
|:"D"DFA dcd|"A"ecA efg|~"D"f3 "G"gfg|"A"ecA GFE|
"D"DFA dB/c/d|"A"ecA efg|"D"faf "G"gec|1 "A"edc d2 A:|2 "A"edc d2 e||
|:~"D"f3 fga|"A"efg efg|~"D"f3 ~"G"g3|"A"ecA GFE|
"D"DFA dcd|"A"ecA efg|"D"f/g/af "G"gec|1 "A"edc d2 e:|2 "A"edc d2 A||
% abcbook-tune_id 62a420d1cd98a6fc9bd362dc


% abcbook-boost 0
% abcbook-tablature 
% abcbook-transpose 
% abcbook-lastupdated 1665491632257
% abcbook-soundfonts 
% abcbook-repeats 3


